!!!OTL: 1696. Ubi bene, ibi patria.
!!!ARE: Europa, Mitteleuropa, Deutschland
!!!SCT: E1696
!!!TXL: @@DE, (@@LAT)
!!!YEM: Copyright 1995, estate of Helmut Schaffrath.
**kern	**text
*ICvox	*
*M2/4	*
*k[f#c#]	*
*D:	*
=1	=1
!LO:TX:a:t=Ziemlich schnell.	!
!LO:TX:a:t=Studentenmelodie.	!
{8.a	Ue-
16a	-ber-
8dd	-all
8a	bin
=2	=2
8f#	ich
8f#	ʒu
8.a	Hau-
16f#}	-ſe,
=3	=3
{8d	ü-
8e	-ber-
8f#	-all
8g	bin
=4	=4
8a	ich
8a	be-
4a}	-kannt;
=5	=5
{8.a	Ue-
16a	-ber-
8dd	-all
8a	bin
=6	=6
8f#	ich
8f#	ʒu
8.a	Hau-
16f#}	-ſe,
=7	=7
{8d	ü-
8e	-ber-
8f#	-all
8g	bin
=8	=8
8a	ich
8a	be-
4a}	-kannt;
=9	=9
{8cc#	macht
8dd	das
8.ee	Glück
16dd	im
=10	=10
8cc#	Nor-
8dd	-den
8.ee	Pau-
16dd}	-ſe,
=11	=11
{8cc#	iſt
8dd	der
8.ee	Süd
16dd	mein
=12	=12
4cc#	Va-
4b	-ter-
=13	=13
2a}	-land.
=14	=14
{8a	Lu-
8a	-ſtig
8.cc#	hier
16b/	und
=15	=15
8a	lu-
8a	-ſtig
4dd}	da.
=16	=16
{8a	Lu-
8a	-ſtig
8.cc#	hier
16b/	und
=17	=17
8a	lu-
8a	-ſtig
4dd}	da.
=18	=18
{4a	U-
4dd	-bi
=19	=19
4b	be-
4ee	-ne,
=20	=20
8cc#	i-
8a	-bi
8.a	pa-
16a	-tri-
=21	=21
2ff#}	-a,
=22	=22
{4a	U-
4dd	-bi
=23	=23
4b	be-
4ee	-ne,
=24	=24
8cc#	i-
8a	-bi
8.b	pa-
16cc#	-tri-
=25	=25
4dd	-a.
4r}	.
==	==
!!!AGN: Staende -, Studenten - Lied
!!!ONB: ESAC (Essen Associative Code) Database: ERK3
!!!AMT: simple duple
!!!AIN: vox
!!!EED: Helmut Schaffrath
!!!EEV: 1.0
!!!GTL: Staendelieder (Berufslieder). 10. Einige Studentenlieder.
!!!URL-scan: https://rosdok.uni-rostock.de/mcrviewer/recordIdentifier/rosdok_ppn745177999/iview2/phys_0501.iview2?x=-449.8344612962892&y=1141.1818595109507&scale=0.47549036216460333&rotation=0&layout=singlePageLayout
!!!ENC: Anna Maria Matuszewska
!!!EEV: 2025/08/01
*-	*-
